modules/coreui-icons-free/icons/calendar-check.svg

<!-- Generated by IcoMoon.io -->
<svg version="1.1" xmlns="http://www.w3.org/2000/svg" width="24" height="24" viewBox="0 0 24 24">
<title>calendar-check</title>
<path d="M22.125 4.5h-4.125v-2.625h-1.5v2.625h-9v-2.625h-1.5v2.625h-4.125c-0.621 0.001-1.124 0.504-1.125 1.125v15.75c0.001 0.621 0.504 1.124 1.125 1.125h20.25c0.621-0.001 1.124-0.504 1.125-1.125v-15.75c-0.001-0.621-0.504-1.124-1.125-1.125h-0zM21.75 21h-19.5v-15h3.75v1.875h1.5v-1.875h9v1.875h1.5v-1.875h3.75z"></path>
<path d="M11.409 14.689l-2.549-2.549-1.061 1.061 3.61 3.61 5.888-5.888-1.061-1.061-4.828 4.828z"></path>
</svg>

<svg xmlns="http://www.w3.org/2000/svg" width="24" height="24" viewBox="0 0 24 24"><path d="M22.125 4.5H18V1.875h-1.5V4.5h-9V1.875H6V4.5H1.875A1.127 1.127 0 00.75 5.625v15.75A1.127 1.127 0 001.875 22.5h20.25a1.127 1.127 0 001.125-1.125V5.625A1.127 1.127 0 0022.125 4.5zM21.75 21H2.25V6H6v1.875h1.5V6h9v1.875H18V6h3.75z"/><path d="M11.409 14.689L8.86 12.14l-1.061 1.061 3.61 3.61 5.888-5.888-1.061-1.061-4.828 4.828z"/></svg>
